src/themes/images/2023/stroke.svg

<?xml version="1.0" encoding="UTF-8"?>
<svg fill="none" viewBox="0 0 1920 481" xmlns="http://www.w3.org/2000/svg">
<mask id="a" x="-304" y="0" width="2398" height="481" style="mask-type:alpha" maskUnits="userSpaceOnUse">
<rect x="-304" width="2398" height="481" fill="#D9D9D9"/>
</mask>
<g mask="url(#a)">
<path d="m116.15 586.07 935.42-500.1 18.47-4.6066-1374 511.75c55.917 0.095 364.24-7.299 420.15-7.048z" fill="#7F00FA"/>
<path d="m315.16 591.46c9.237-11.283 20.127-19.084 32.67-23.415 11.547-8.232 24.002-12.384 37.365-12.432 7.191-2.381 14.382-3.446 21.573-3.219l650.58-451.78 8.4-18.462-1242.2 511.32c48.88 0.191 374.68 27.065 462.74 31.121 7.946-13.09 17.556-24.146 28.829-33.132z" fill="#6B02D1"/>
<path d="m315.16 591.46c9.237-11.284 20.127-19.085 32.67-23.416 11.547-8.232 24.002-12.384 37.365-12.432 13.123-4.332 26.246-4.332 39.358 0 19.7 1.101 38.055 8.304 55.052 21.609 6.436 6.114 12.86 12.228 19.296 18.331l560.75-486.82 1.63-25.654-1110.7 511c30.645 0.167 208.61 5.336 351.7 9.321 4.027-4.32 8.307-8.304 12.882-11.953l-0.011 0.012z" fill="#A84EFF"/>
<path d="m315.16 591.46c9.237-11.283 20.127-19.084 32.67-23.415 11.547-8.232 24.002-12.384 37.365-12.432 13.123-4.332 26.246-4.332 39.358 0 19.7 1.101 38.055 8.304 55.052 21.609 5.33 5.061 10.649 10.122 15.979 15.184 72.214-0.455 128.95-0.754 143.7-0.646l418.05-491.96-0.63-15.603-979.39 510.67c20.609 0.131 123.06-0.515 235.25-1.257 0.865-0.73 1.729-1.448 2.605-2.154h-0.011z" fill="#6B02D1"/>
<path d="m315.16 591.46c9.237-11.284 20.127-19.085 32.67-23.416 11.547-8.232 24.002-12.384 37.365-12.432 13.123-4.332 26.246-4.332 39.358 0 19.7 1.101 38.055 8.304 55.052 21.609 4.794 4.559 9.588 9.105 14.381 13.664l574.91-498.41-16.85-6.9517-848.07 510.22c17.73 0.132 56.781 2.728 100.06 5.815 3.513-3.613 7.224-6.988 11.131-10.098z" fill="#A84EFF"/>
<path d="m424.55 555.62c19.7 1.101 38.055 8.304 55.052 21.609 8.854 8.411 17.698 16.823 26.552 25.234 55.556 2.023 106.8 3.829 125.06 3.937l420.36-520.43-4.24 1.1127-656.82 467.01c11.349-2.74 22.688-2.237 34.038 1.52z" fill="#7F00FA"/>
<path d="m501.22 597.76c11.229 0.072 22.459 0.144 33.688 0.204 7.464-0.335 51.922 4.498 96.686 9.368 13.068-12.97 28.041-21.92 44.917-26.85 17.983-3.122 34.98-10.888 52.327-17.17 7.366-2.668 14.787-4.941 22.361-6.437 6.512-1.292 13.046-2.489 19.591-3.625l286.55-453.44-14.65-10.876-562.52 488.84c7.016 6.665 14.031 13.33 21.047 19.994z" fill="#A84EFF"/>
<path d="m645.54 595.54c9.489-6.773 19.81-11.798 30.973-15.065 17.983-3.122 34.98-10.888 52.327-17.17 7.366-2.668 14.787-4.941 22.361-6.437 15.618-3.087 31.378-5.815 47.106-7.837 3.119-0.407 6.26-0.634 9.391-0.754 1.236-0.048 2.473-0.06 3.71-0.072l245.94-447.59-19.11-9.572-451.72 504.72c13.068-0.538 34.596-0.491 59.036-0.215h-0.011z" fill="#7F00FA"/>
<path d="m751.2 556.86c15.618-3.087 31.378-5.815 47.106-7.837 3.119-0.407 6.26-0.634 9.391-0.754 25.906-0.969 52.545 5.349 77.872 9.68 13.626 2.333 27.143 5.504 40.649 8.699l117.26-458.72-9.39-14.502-299.02 467.73c5.319-1.735 10.671-3.219 16.111-4.296h0.011z" fill="#A84EFF"/>
<path d="m885.57 557.95c27.81 4.75 55.128 13.042 82.939 17.744l-22.491-3.721c11.7 1.951 23.356 3.985 34.979 6.174l61.337-470.23-11.88-11.882-175.08 456.46c10.19 1.747 20.303 3.745 30.208 5.432l-0.011 0.024z" fill="#7F00FA"/>
<path d="m968.5 575.7-1.992-0.335-0.022 0.132c13.769 2.441 27.493 5.073 41.199 8.064 32.1-1.304 68.37-3.063 92.37-3.194l-56.58-472.44-16.04-9.0937-60.927 476.51c0.668 0.12 1.325 0.24 1.992 0.359z" fill="#A84EFF"/>
<path d="m1087.7 583.77c35.45-0.144 84.32-0.347 119.76-0.144l-147.81-474.88-34.51-7.072 61.65 482.1h0.93-0.02z" fill="#7F00FA"/>
<path d="m1316.7 585.35-274.37-477.42-18.78-3.482 183.92 479.52c36.43 0.264 72.84 0.718 109.23 1.376v0.012z" fill="#A84EFF"/>
<path d="m1385.4 586.83c18.85 0.479 37.68 1.065 56.5 1.735l-414.6-489.58-4.74 8.0881 301.22 480.58c18.99 0.371 42.65-1.305 61.62-0.826z" fill="#7F00FA"/>
<path d="m1492.4 590.58 80.02-5.277-549.71-478.19-0.59 2.345 426.49 486.46c13.73 0.514 30.06-5.947 43.79-5.349v0.012z" fill="#A84EFF"/>
<path d="m1694 590.58-651.72-474.52-20.37-4.487 551.18 479h120.91z" fill="#6B02D1"/>
<path d="m1021.5 113.62 0.45-0.203 671.09 477.16 124.58-7.347" fill="#7F00FA"/>
<path d="m1042.9 108.05-20.74 8.255 1.12 0.587 19.62-8.842z" fill="#E84343"/>
<path d="m1022.1 114.97 790.51 475.6h119.14l-891.23-464.7" fill="#A84EFF"/>
<path d="m1040 125.63 954.54 512.11h16.26l-360.78-223.34-610.02-288.77z" fill="#6B02D1"/>
</g>
</svg>

<svg width="1920" height="481" viewBox="0 0 1920 481" fill="none" xmlns="http://www.w3.org/2000/svg">
<mask id="mask0_110_8794" style="mask-type:alpha" maskUnits="userSpaceOnUse" x="-304" y="0" width="2398" height="481">
<rect x="-304" width="2398" height="481" fill="#D9D9D9"/>
</mask>
<g mask="url(#mask0_110_8794)">
<path d="M116.148 586.066L1051.57 85.9698L1070.04 81.3632L-304 593.114C-248.083 593.209 60.2421 585.815 116.148 586.066Z" fill="#7F00FA"/>
<path d="M315.157 591.462C324.394 580.179 335.284 572.378 347.827 568.047C359.374 559.815 371.829 555.663 385.192 555.615C392.383 553.234 399.574 552.169 406.765 552.396L1057.34 100.615L1065.74 82.1529L-176.417 593.473C-127.537 593.664 198.267 620.538 286.328 624.594C294.274 611.504 303.884 600.448 315.157 591.462Z" fill="#6B02D1"/>
<path d="M315.157 591.463C324.394 580.179 335.284 572.378 347.827 568.047C359.374 559.815 371.829 555.663 385.192 555.615C398.315 551.283 411.438 551.283 424.55 555.615C444.25 556.716 462.605 563.919 479.602 577.224C486.038 583.338 492.462 589.452 498.898 595.555L1059.65 108.74L1061.28 83.0862L-49.4136 594.083C-18.7683 594.25 159.194 599.419 302.286 603.404C306.313 599.084 310.593 595.1 315.168 591.451L315.157 591.463Z" fill="#A84EFF"/>
<path d="M315.157 591.462C324.394 580.179 335.284 572.378 347.827 568.047C359.374 559.815 371.829 555.663 385.192 555.615C398.315 551.283 411.438 551.283 424.55 555.615C444.25 556.716 462.605 563.919 479.602 577.224C484.932 582.285 490.251 587.346 495.581 592.408C567.795 591.953 624.533 591.654 639.286 591.762L1057.34 99.8015L1056.71 84.1989L77.3159 594.873C97.9249 595.004 200.379 594.358 312.563 593.616C313.428 592.886 314.292 592.168 315.168 591.462H315.157Z" fill="#6B02D1"/>
<path d="M315.157 591.463C324.394 580.179 335.284 572.378 347.827 568.047C359.374 559.815 371.829 555.663 385.192 555.615C398.315 551.283 411.438 551.283 424.55 555.615C444.25 556.716 462.605 563.919 479.602 577.224C484.396 581.783 489.19 586.329 493.983 590.888L1068.89 92.4788L1052.04 85.5271L203.969 595.746C221.699 595.878 260.75 598.474 304.026 601.561C307.539 597.948 311.25 594.573 315.157 591.463Z" fill="#A84EFF"/>
<path d="M424.55 555.615C444.25 556.716 462.605 563.919 479.602 577.224C488.456 585.635 497.3 594.047 506.154 602.458C561.71 604.481 612.953 606.287 631.209 606.395L1051.57 85.9698L1047.33 87.0825L390.512 554.095C401.861 551.355 413.2 551.858 424.55 555.615Z" fill="#7F00FA"/>
<path d="M501.218 597.756C512.447 597.828 523.677 597.9 534.906 597.96C542.37 597.625 586.828 602.458 631.592 607.328C644.66 594.358 659.633 585.408 676.509 580.478C694.492 577.356 711.489 569.59 728.836 563.308C736.202 560.64 743.623 558.367 751.197 556.871C757.709 555.579 764.243 554.382 770.788 553.246L1057.34 99.8015L1042.69 88.9252L480.171 577.762C487.187 584.427 494.202 591.092 501.218 597.756Z" fill="#A84EFF"/>
<path d="M645.536 595.543C655.025 588.77 665.346 583.745 676.509 580.478C694.492 577.356 711.489 569.59 728.836 563.308C736.202 560.64 743.623 558.367 751.197 556.871C766.815 553.784 782.575 551.056 798.303 549.034C801.422 548.627 804.563 548.4 807.694 548.28C808.93 548.232 810.167 548.22 811.404 548.208L1057.34 100.615L1038.23 91.043L586.511 595.758C599.579 595.22 621.107 595.267 645.547 595.543H645.536Z" fill="#7F00FA"/>
<path d="M751.197 556.859C766.815 553.772 782.575 551.044 798.303 549.022C801.422 548.615 804.563 548.388 807.694 548.268C833.6 547.299 860.239 553.617 885.566 557.948C899.192 560.281 912.709 563.452 926.215 566.647L1043.48 107.926L1034.09 93.4241L735.075 561.155C740.394 559.42 745.746 557.936 751.186 556.859H751.197Z" fill="#A84EFF"/>
<path d="M885.566 557.948C913.376 562.698 940.694 570.99 968.505 575.692L946.014 571.971C957.714 573.922 969.37 575.956 980.993 578.145L1042.33 107.914L1030.45 96.0325L855.369 552.492C865.559 554.239 875.672 556.237 885.577 557.924L885.566 557.948Z" fill="#7F00FA"/>
<path d="M968.505 575.704L966.513 575.369L966.491 575.501C980.26 577.942 993.984 580.574 1007.69 583.565C1039.79 582.261 1076.06 580.502 1100.06 580.371L1043.48 107.926L1027.44 98.8323L966.513 575.345C967.181 575.465 967.838 575.585 968.505 575.704Z" fill="#A84EFF"/>
<path d="M1087.7 583.769C1123.15 583.625 1172.02 583.422 1207.46 583.625L1059.65 108.74L1025.14 101.668L1086.79 583.769C1087.09 583.769 1087.4 583.769 1087.72 583.769H1087.7Z" fill="#7F00FA"/>
<path d="M1316.7 585.348L1042.33 107.926L1023.55 104.444L1207.47 583.96C1243.9 584.224 1280.31 584.678 1316.7 585.336V585.348Z" fill="#A84EFF"/>
<path d="M1385.41 586.832C1404.26 587.311 1423.09 587.897 1441.91 588.567L1027.31 98.9879L1022.57 107.076L1323.79 587.658C1342.78 588.029 1366.44 586.353 1385.41 586.832Z" fill="#7F00FA"/>
<path d="M1492.38 590.577L1572.4 585.3L1022.69 107.112L1022.1 109.457L1448.59 595.914C1462.32 596.428 1478.65 589.967 1492.38 590.565V590.577Z" fill="#A84EFF"/>
<path d="M1694.05 590.577L1042.33 116.062L1021.96 111.575L1573.14 590.577H1694.05Z" fill="#6B02D1"/>
<path d="M1021.54 113.621L1021.99 113.418L1693.08 590.577L1817.66 583.23" fill="#7F00FA"/>
<path d="M1042.89 108.046L1022.15 116.301L1023.27 116.888L1042.89 108.046Z" fill="#E84343"/>
<path d="M1022.08 114.973L1812.59 590.577H1931.73L1040.5 125.874" fill="#A84EFF"/>
<path d="M1040.02 125.634L1994.56 637.744H2010.82L1650.04 414.403L1040.02 125.634Z" fill="#6B02D1"/>
</g>
</svg>
